app/img/offer-egg-1.svg

<svg width="26" height="26" viewBox="0 0 26 26" fill="none" xmlns="http://www.w3.org/2000/svg">
<g clip-path="url(#clip0)">
<path d="M18.5036 16.0981C18.2512 16.0981 18.0259 15.9215 17.9739 15.6648C17.9143 15.3712 18.1028 15.0852 18.3964 15.0267C21.5489 14.3843 24.8065 10.2373 24.9961 4.33417H21.1253C20.8263 4.33309 20.5836 4.09042 20.5836 3.79142C20.5836 3.49242 20.8263 3.24976 21.1253 3.24976H25.5453C25.8443 3.24976 26.087 3.49242 26.087 3.79142C26.087 10.7887 22.2357 15.3484 18.612 16.0873C18.5751 16.0938 18.5394 16.0981 18.5036 16.0981Z" fill="#00F0FF"/>
<path d="M7.48716 16.0764C7.44816 16.0764 7.40808 16.0721 7.36799 16.0634C3.79624 15.2618 0.000244141 10.689 0.000244141 3.79142C0.000244141 3.49242 0.242911 3.24976 0.541911 3.24976H4.87524C5.17424 3.24976 5.46024 3.49242 5.46024 3.79142C5.46024 4.09042 5.26091 4.33309 4.96191 4.33309H1.09224C1.28074 10.1549 4.49499 14.3084 7.60416 15.0061C7.89666 15.0722 8.07974 15.3614 8.01366 15.6528C7.95841 15.9053 7.73524 16.0764 7.48716 16.0764Z" fill="#00F0FF"/>
<path d="M14.6254 22.7496H11.3754C11.0764 22.7496 10.8337 22.5069 10.8337 22.2079V18.2646C10.8337 17.9656 11.0764 17.7229 11.3754 17.7229C11.6744 17.7229 11.9171 17.9656 11.9171 18.2646V21.6662H14.0837V18.2646C14.0837 17.9656 14.3264 17.7229 14.6254 17.7229C14.9244 17.7229 15.1671 17.9656 15.1671 18.2646V22.2079C15.1671 22.5069 14.9244 22.7496 14.6254 22.7496Z" fill="#00F0FF"/>
<path d="M17.8754 25.9996H8.12541C7.82641 25.9996 7.58374 25.7569 7.58374 25.4579V24.3746C7.58374 22.8818 8.79924 21.6663 10.2921 21.6663H15.7087C17.2016 21.6663 18.4171 22.8818 18.4171 24.3746V25.4579C18.4171 25.7569 18.1744 25.9996 17.8754 25.9996ZM8.66707 24.9163H17.3337V24.3746C17.3337 23.4787 16.6047 22.7496 15.7087 22.7496H10.2921C9.39616 22.7496 8.66707 23.4787 8.66707 24.3746V24.9163Z" fill="#00F0FF"/>
<path d="M13.0004 19.4998C12.9419 19.4998 12.8845 19.49 12.8282 19.4716C12.4826 19.3557 4.37924 16.5618 4.33374 9.75301V1.62476C4.33374 0.728839 5.06282 -0.000244141 5.95874 -0.000244141H20.0421C20.938 -0.000244141 21.6671 0.728839 21.6671 1.62476V9.74976C21.6671 16.5618 13.5193 19.3568 13.1716 19.4716C13.1163 19.49 13.0578 19.4998 13.0004 19.4998ZM5.95874 1.08309C5.65974 1.08309 5.41707 1.32576 5.41707 1.62476V9.74976C5.45391 15.2683 11.8607 17.9484 13.0004 18.3818C14.1444 17.9495 20.5837 15.2704 20.5837 9.74976V1.62476C20.5837 1.32576 20.3411 1.08309 20.0421 1.08309H5.95874Z" fill="#00F0FF"/>
</g>
<defs>
<clipPath id="clip0">
<rect width="26" height="26" fill="white" transform="translate(0.000244141 -0.000244141)"/>
</clipPath>
</defs>
</svg>

<svg width="26" height="26" fill="none" xmlns="http://www.w3.org/2000/svg"><g clip-path="url(#clip0)" fill="#00F0FF"><path d="M18.504 16.098a.54.54 0 01-.108-1.071c3.153-.643 6.41-4.79 6.6-10.693h-3.87a.542.542 0 010-1.084h4.42c.298 0 .541.242.541.541 0 6.998-3.851 11.557-7.475 12.296a.623.623 0 01-.108.011zm-11.017-.022a.563.563 0 01-.119-.013C3.796 15.262 0 10.69 0 3.791c0-.299.243-.541.542-.541h4.333c.3 0 .585.242.585.541 0 .3-.2.542-.498.542h-3.87c.189 5.822 3.403 9.975 6.512 10.673a.54.54 0 01-.117 1.07zm7.138 6.674h-3.25a.542.542 0 01-.541-.542v-3.943a.542.542 0 011.083 0v3.401h2.167v-3.401a.542.542 0 011.083 0v3.943a.542.542 0 01-.542.542z"/><path d="M17.875 26h-9.75a.542.542 0 01-.541-.542v-1.083a2.712 2.712 0 012.708-2.709h5.417a2.712 2.712 0 012.708 2.709v1.083a.542.542 0 01-.542.542zm-9.208-1.084h8.667v-.541c0-.896-.73-1.625-1.625-1.625h-5.417c-.896 0-1.625.729-1.625 1.625v.541zM13 19.5a.552.552 0 01-.172-.028c-.345-.116-8.449-2.91-8.494-9.719V1.625C4.334.729 5.063 0 5.959 0h14.083c.896 0 1.625.729 1.625 1.625V9.75c0 6.812-8.148 9.607-8.495 9.722A.546.546 0 0113 19.5zM5.96 1.083a.542.542 0 00-.542.542V9.75c.037 5.518 6.444 8.198 7.583 8.632 1.144-.433 7.584-3.112 7.584-8.632V1.625a.542.542 0 00-.542-.542H5.96z"/></g><defs><clipPath id="clip0"><path fill="#fff" d="M0 0h26v26H0z"/></clipPath></defs></svg>
